X:181
T:RVW2/2/181 Boney's In St. Helena
C:Mr. H. Burstow, Horsham, Sussex, 22 December 1904
Z:Transcribed by Simon Furey and Lewis Jones
F:http://www.vwml.org/record/RVW2/1/181
L:1/8
Q:1/4=90
M:2/4
I:linebreak $
K:G
"^(Editorial suggestion  ""^First verse only" G2 | dd GB | d2 dd | e2 A>c | BG D2 |$ G2 GG | 
B2 Be | d2 Ac | BG z (3d/e/f/ |$ g2 ge | d2 Bd | g2 ge | ed d2 |$ ge ec | d2 G>A | Bd BG | AG ||$ 
"^All other verses" D2 | G2 GG | B2 Be | d2 Ac | BG z D |$ G2 GG | B2 Be | d2 Ac | BG z (3d/e/f/ |$ 
g2 ge | d2 Bd | g2 ge | ed d2 |$ ge ec | d2 G>A | Bd BG | AG |] 



